X:738
%%etbk:tnset id:471,pos:1,rep:3x,ant:
%%etbk:wsite https://thesession.org/tunes/732
%%etbk:video src:ytube,cde:LwJ0w5ThmPo,desc:second tune
%%etbk:pldat 2016-07-19T21:27,2016-06-14T17:38,2016-06-12T14:03,2016-05-16T09:57,2015-12-14T18:35,2015-06-13T16:58,2015-06-11T19:40,2015-06-09T17:38,2015-06-06T16:30,2015-05-25T11:10
T: Thunderhead
Z: Piano Box Version by Martin Fleischmann
H: Created 2015-05-23 /  Last Modified 2016-06-12
R: jig
M: 6/8
L: 1/8
K: Gmaj
|:[M:7/8 ]!1!B3 !4!fB Bf | !3!eBB dB !1!B!2!A | !1!B3 f2!5!gf | !3!ed!1!B !2!A!1!G G!4!c|
!1!B3 fB Bf | eBB dB ef | !5!gfe fd d!1!B | !3!ADF !3!A!4!B !2!B!3!c :|
!4!d!1!GG A!1!G !1!G!2!E | !1!DEG !2!F2F2 | EFF EFF2 | GFE F2F2 |
!5!dGG AG GE | DEG F2!2!F!4!A | !2!(3BcdB !3!c!5!e !2!eg | !3!(3fgaf !4!g2 g2 |
!3!d!1!GG AG GE | DEG F2F2 | EFF EFF2 | GFE F2F2 |
dGG AG GE | DEG F2GA |[M:6/8]!1!B!2!d!3!e !4!fgf | [M:7/8]!3!e!2!d!1!B !2!AG Gc||


